X: 768
T: Pretty Jane.
B:O'Neill's Music of Ireland
N:O'Neill's - 768
Z:Transcribed by Stephen Foy (shf@access.digex.net)
Z:abc 1.6
M:6/8
R:Jig
K:A
c/B/|ABA cBA|cde a2 f|ecA BAF|BcB B2 c|\
ABA cBA|cde a2 f|ecA BAF|ABA A2:|
||(f/g/)|aba afe|fef agf|ecA BAF|BcB Bfg|\
aba age|fdf a2 f|ecA BAF|ABA A2:|


